public/images/icons/github-card.svg

<svg width="35" height="41" viewBox="0 0 35 41" fill="none" xmlns="http://www.w3.org/2000/svg">
<g clip-path="url(#clip0_740_100)">
<path d="M10.2425 41C10.7285 41 11.0971 40.9836 11.3402 40.9508C11.6253 40.8924 11.8824 40.7376 12.0693 40.5121C12.3123 40.2538 12.4339 39.8807 12.4339 39.3888L12.4177 37.1052C12.4055 35.6497 12.4015 34.4936 12.4015 33.6449L11.6399 33.7802C11.0305 33.8774 10.4134 33.9157 9.79689 33.895C9.0222 33.8811 8.24995 33.803 7.48802 33.6613C6.67931 33.5086 5.9184 33.163 5.26827 32.6528C4.58675 32.1309 4.07819 31.4118 3.81004 30.5906L3.47788 29.8157C3.19859 29.2054 2.8476 28.6315 2.43282 28.1061C2.06036 27.5674 1.56416 27.1283 0.986736 26.8269L0.755849 26.6629C0.596861 26.5442 0.452658 26.4067 0.326481 26.2529C0.203949 26.1131 0.102886 25.9557 0.0267337 25.7856C-0.0380767 25.6298 0.0145816 25.4986 0.188759 25.4002C0.49438 25.2758 0.824305 25.2239 1.15281 25.2485L1.81712 25.351C2.26269 25.4371 2.80953 25.7077 3.46168 26.1546C4.10978 26.6055 4.64852 27.1836 5.06979 27.9011C5.58017 28.8194 6.19181 29.5205 6.91283 30.0002C7.54918 30.4544 8.30544 30.7058 9.08397 30.7218C9.81309 30.7218 10.445 30.6685 10.9756 30.5578C11.4921 30.4493 11.994 30.2786 12.4703 30.0494C12.6688 28.5529 13.2075 27.3968 14.0906 26.5932C12.9442 26.4784 11.808 26.2755 10.6921 25.9865C9.60246 25.6825 8.55456 25.2417 7.57308 24.6745C6.54523 24.11 5.63688 23.3466 4.89966 22.4278C4.19485 21.53 3.6156 20.3574 3.15788 18.902C2.68071 17.267 2.45246 15.5678 2.48142 13.8633C2.48142 11.1574 3.35636 8.84921 5.10219 6.9469C4.28396 4.90929 4.36092 2.62569 5.33308 0.0960985C5.97713 -0.108913 6.92903 0.0428013 8.18878 0.547079C9.44853 1.05136 10.3761 1.48184 10.9594 1.84262C11.5468 2.19931 12.0126 2.49859 12.369 2.74458C14.4436 2.16138 16.5876 1.86886 18.7407 1.87542C20.9281 1.87542 23.0546 2.16241 25.1124 2.74868L26.3681 1.94102C27.2349 1.40804 28.2516 0.911963 29.4223 0.465083C30.5969 0.0141027 31.4921 -0.108913 32.1119 0.0960985C33.1083 2.62569 33.1975 4.90929 32.3752 6.9428C34.1251 8.84921 35 11.1533 35 13.8633C35 15.7656 34.7732 17.4506 34.3195 18.9184C33.8658 20.3861 33.2785 21.5587 32.5615 22.4442C31.8121 23.354 30.8997 24.1122 29.8719 24.6786C28.8904 25.246 27.8425 25.6868 26.7529 25.9906C25.6355 26.2786 24.4979 26.4801 23.3503 26.5932C24.5007 27.5977 25.0759 29.1884 25.0759 31.3613V39.3847C25.0759 39.766 25.1326 40.0734 25.242 40.3112C25.2934 40.4244 25.367 40.5261 25.4581 40.6099C25.5492 40.6937 25.6564 40.7581 25.7726 40.7991C26.0157 40.8852 26.2344 40.9426 26.4207 40.9631C26.6111 40.9877 26.8785 41 27.2309 41H19.2673H10.2465H10.2425Z" fill="#292929"/>
</g>
<defs>
<clipPath id="clip0_740_100">
<rect width="35" height="41" fill="white"/>
</clipPath>
</defs>
</svg>

<svg width="35" height="41" fill="none" xmlns="http://www.w3.org/2000/svg"><g clip-path="url(#a)"><path d="M10.242 41a8.98 8.98 0 0 0 1.098-.05c.285-.058.542-.212.73-.438.242-.258.364-.631.364-1.123l-.016-2.284a419.09 419.09 0 0 1-.016-3.46l-.762.135a9.645 9.645 0 0 1-1.843.115 14.001 14.001 0 0 1-2.309-.234 5.14 5.14 0 0 1-2.22-1.008A4.262 4.262 0 0 1 3.81 30.59l-.332-.775a8.4 8.4 0 0 0-1.045-1.71 4.022 4.022 0 0 0-1.446-1.28l-.231-.163a2.454 2.454 0 0 1-.43-.41 1.865 1.865 0 0 1-.3-.467c-.064-.156-.011-.287.163-.386.305-.124.635-.176.964-.151l.664.102c.446.086.993.357 1.645.804A5.471 5.471 0 0 1 5.07 27.9c.51.918 1.122 1.62 1.843 2.1a3.874 3.874 0 0 0 2.171.72c.73 0 1.361-.052 1.892-.163a6.555 6.555 0 0 0 1.494-.509c.199-1.496.737-2.652 1.62-3.456a22.497 22.497 0 0 1-3.398-.607 13.466 13.466 0 0 1-3.119-1.312A8.957 8.957 0 0 1 4.9 22.428c-.705-.898-1.284-2.07-1.742-3.526a16.96 16.96 0 0 1-.677-5.039c0-2.706.875-5.014 2.621-6.916-.818-2.038-.741-4.321.231-6.85C5.977-.11 6.93.042 8.19.546c1.26.504 2.187.935 2.77 1.296.588.356 1.054.656 1.41.902a23.28 23.28 0 0 1 6.372-.87c2.187 0 4.314.287 6.371.874l1.256-.808c.867-.533 1.884-1.029 3.054-1.476 1.175-.45 2.07-.574 2.69-.369.996 2.53 1.085 4.813.263 6.847 1.75 1.906 2.625 4.21 2.625 6.92 0 1.903-.227 3.588-.68 5.055-.454 1.468-1.041 2.64-1.758 3.526a9.303 9.303 0 0 1-2.69 2.235 13.45 13.45 0 0 1-3.12 1.312c-1.116.288-2.254.49-3.402.602 1.15 1.005 1.726 2.595 1.726 4.768v8.024c0 .381.057.688.166.926a.926.926 0 0 0 .53.488c.244.086.462.144.649.164.19.025.457.037.81.037H10.242Z" fill="#292929"/></g><defs><clipPath id="a"><path fill="#fff" d="M0 0h35v41H0z"/></clipPath></defs></svg>
